X:1
T:Fair William and Lady Maisry
M:4/4
L:1/4
K:C
 z A,| D/2D/2 D F G/2 G/2-| A2 G F| D F G A| D2 z A/2A/2| F/2- A A/2 G F/2 D/2-|\
 D D F/2F/2 G| A F G/2 A3/2| D2 z A/2A/2| A/2- c A/2 A F/2 F/2-| G2 G/2G/2 F|\
 A G F G| D2 z A| A3/2 A/2A/2-G/2 F| D C/2 C/2- F G| A/2A/2 F G A|\
 D2|

